assets/illustrations/default/attendance-3.svg

<svg xmlns="http://www.w3.org/2000/svg" width="1080" height="1081" fill="none"><g clip-path="url(#a)"><path fill="#C5D9FB" d="M270 464.514c121.503 0 220-98.498 220-220 0-121.503-98.497-220-220-220s-220 98.497-220 220c0 121.502 98.497 220 220 220"/><path fill="#072F73" d="M569.324 413.162c46.571 0 84.324-37.753 84.324-84.324s-37.753-84.324-84.324-84.324S485 282.267 485 328.838s37.753 84.324 84.324 84.324"/><path fill="#0096FA" d="M934.624 1080.24c32.13-62.63 50.16-133.533 50.16-208.773 0-252.973-204.98-457.953-457.953-457.953S68.879 618.494 68.879 871.467c0 75.24 18.166 146.143 50.161 208.773z"/><path fill="#141414" d="M537.813 725.326h207.692c12.744 0 23.183-10.439 23.183-23.183V545.154c0-12.744-10.439-23.182-23.183-23.182H537.813c-12.743 0-23.182 10.438-23.182 23.182v156.989c0 12.744 10.439 23.183 23.182 23.183"/><path fill="#141414" d="M497.142 767.623h153.736c12.743 0 23.182-10.439 23.182-23.182V630.698c0-12.744-10.439-23.182-23.182-23.182H497.142c-12.743 0-23.182 10.438-23.182 23.182v113.743a23.085 23.085 0 0 0 23.182 23.182"/><path fill="#141414" d="M648.167 781.992h153.735c12.744 0 23.182-10.439 23.182-23.182V645.067c0-12.743-10.438-23.182-23.182-23.182H648.167c-12.744 0-23.183 10.439-23.183 23.182V758.81a23.086 23.086 0 0 0 23.183 23.182"/><path fill="#FCAA73" d="M564.25 480.758h129.468l9.897 9.896v243.618h-95.712v-39.044H564.25l-9.897-9.896V490.654z"/><path fill="#141414" d="m693.718 480.758 9.897 9.896.678 111.574-.814.542-98.694-99.236-50.432 60.734v-73.614l9.897-9.896z"/><path fill="#FCAA73" d="M715.408 641.679h-27.114v-42.433h36.74v32.943c0 5.288-4.339 9.49-9.626 9.49"/><path fill="url(#b)" d="M681.381 693.467h22.233V641.68h-22.233z"/><path fill="url(#c)" d="M641.659 695.093h-33.757v13.557h33.757z"/><path fill="#F06305" fill-rule="evenodd" d="M593.156 587.056a1.764 1.764 0 0 1 .908 2.322l-20.746 47.42h21.3a1.763 1.763 0 0 1 0 3.526h-23.996a1.762 1.762 0 0 1-1.615-2.47l21.827-49.889a1.764 1.764 0 0 1 2.322-.909" clip-rule="evenodd"/><path fill="#F06305" d="M893.276 858.45c-6.507-36.739-32.672-66.836-68.055-78.359L703.75 740.098v-31.181h-95.576v31.181l-15.455 5.152-106.015 34.841c-35.383 11.659-61.548 41.755-68.055 78.359l-39.722 221.93h554.071z"/><path fill="#FCAA73" d="M789.022 1080.38h143.839L914.83 977.89H771.262z"/><path fill="url(#d)" d="M499.176 917.693v162.277l142.89.54z"/><path fill="url(#e)" d="m756.351 898.036 33.621 182.344h-160.65z"/><path fill="#072F73" d="M551.64 1048.66H228.579c-6.643 0-11.659 6.1-10.439 12.61l2.034 10.43c.949 5.02 5.287 8.55 10.438 8.55h323.062c6.643 0 11.659-6.1 10.439-12.61l-2.034-10.44c-.949-5.02-5.287-8.54-10.439-8.54"/><path fill="#0C4EC0" d="M20.616 842.729H376.62c5.016 0 9.355 3.524 10.439 8.54l42.027 216.371c1.22 6.51-3.796 12.61-10.439 12.61H62.642c-5.016 0-9.354-3.53-10.439-8.55L10.177 855.336c-1.22-6.507 3.796-12.607 10.439-12.607"/><path fill="#FCAA73" d="m882.565 1080.38-96.932-66.29-96.255-65.756-68.055 99.506 47.449 32.54z"/><path fill="url(#f)" d="m772.755 986.431 3.932 21.559 105.879 72.39h50.296l-5.829-33.76z"/><path fill="#FCAA73" d="m689.38 948.336-150.347-16.811-68.598 21.556-41.213 30.639 11.795 11.523 26.165-11.252-28.876 27.929 15.454 10.44 64.26-40.945-40.399 45.955 12.201 8.95 48.805-32.13-29.825 32.81 10.574 8.67 47.991-31.04 54.363 33.21z"/><path fill="url(#g)" d="M61.286 519.527h316.012c7.457 0 13.557 6.101 13.557 13.557v23.183h23.182c11.117 0 16.811 13.557 8.812 21.42l-31.994 31.994V729.66c0 7.456-6.1 13.557-13.557 13.557H61.286c-7.456 0-13.556-6.101-13.556-13.557V533.22c0-7.592 6.1-13.693 13.556-13.693"/></g><defs><linearGradient id="b" x1="671.673" x2="731.279" y1="672.677" y2="658.124" gradientUnits="userSpaceOnUse"><stop stop-color="#F8BC9A" stop-opacity="0"/><stop offset=".107" stop-color="#F7B48D" stop-opacity=".138"/><stop offset=".303" stop-color="#F6A06C" stop-opacity=".391"/><stop offset=".565" stop-color="#F38035" stop-opacity=".729"/><stop offset=".776" stop-color="#F06305"/></linearGradient><linearGradient id="c" x1="639.051" x2="609.858" y1="722.73" y2="680.075" gradientUnits="userSpaceOnUse"><stop stop-color="#F8BC9A" stop-opacity="0"/><stop offset=".162" stop-color="#F8BA96" stop-opacity=".162"/><stop offset=".326" stop-color="#F7B28A" stop-opacity=".326"/><stop offset=".492" stop-color="#F6A675" stop-opacity=".492"/><stop offset=".658" stop-color="#F59559" stop-opacity=".658"/><stop offset=".825" stop-color="#F37F34" stop-opacity=".825"/><stop offset=".99" stop-color="#F06508" stop-opacity=".99"/><stop offset="1" stop-color="#F06305"/></linearGradient><linearGradient id="d" x1="583.882" x2="476.232" y1="987.577" y2="1081.51" gradientUnits="userSpaceOnUse"><stop offset=".145" stop-color="#F06305"/><stop offset=".311" stop-color="#E15D05"/><stop offset=".631" stop-color="#B94C04"/><stop offset=".942" stop-color="#8C3A03"/></linearGradient><linearGradient id="e" x1="666.138" x2="811.823" y1="965.851" y2="1092.98" gradientUnits="userSpaceOnUse"><stop offset=".145" stop-color="#F06305"/><stop offset=".311" stop-color="#E15D05"/><stop offset=".631" stop-color="#B94C04"/><stop offset=".942" stop-color="#8C3A03"/></linearGradient><linearGradient id="f" x1="878.215" x2="813.426" y1="975.967" y2="1122.45" gradientUnits="userSpaceOnUse"><stop offset=".281" stop-color="#F8BC9A" stop-opacity="0"/><stop offset=".297" stop-color="#F8B995" stop-opacity=".031"/><stop offset=".536" stop-color="#F48B48" stop-opacity=".5"/><stop offset=".706" stop-color="#F16E18" stop-opacity=".834"/><stop offset=".79" stop-color="#F06305"/></linearGradient><linearGradient id="g" x1="31.526" x2="408.592" y1="511.657" y2="751.901" gradientUnits="userSpaceOnUse"><stop stop-color="#C5D9FB"/><stop offset=".07" stop-color="#CBDDFA"/><stop offset=".39" stop-color="#E2EAF7"/><stop offset=".691" stop-color="#F0F2F6"/><stop offset=".952" stop-color="#F5F5F5"/></linearGradient><clipPath id="a"><path fill="#fff" d="M0 .514h1080v1080H0z"/></clipPath></defs></svg>

<svg width="1080" height="1081" viewBox="0 0 1080 1081" fill="none" xmlns="http://www.w3.org/2000/svg">
<g clip-path="url(#clip0_18735_2677)">
<path d="M270 464.514C391.503 464.514 490 366.016 490 244.514C490 123.011 391.503 24.5137 270 24.5137C148.497 24.5137 50 123.011 50 244.514C50 366.016 148.497 464.514 270 464.514Z" fill="#C5D9FB"/>
<path d="M569.324 413.162C615.895 413.162 653.648 375.409 653.648 328.838C653.648 282.267 615.895 244.514 569.324 244.514C522.753 244.514 485 282.267 485 328.838C485 375.409 522.753 413.162 569.324 413.162Z" fill="#072F73"/>
<path d="M934.624 1080.24C966.754 1017.61 984.784 946.707 984.784 871.467C984.784 618.494 779.804 413.514 526.831 413.514C273.859 413.514 68.8789 618.494 68.8789 871.467C68.8789 946.707 87.0452 1017.61 119.04 1080.24H934.624Z" fill="#0096FA"/>
<path d="M537.813 725.326H745.505C758.249 725.326 768.688 714.887 768.688 702.143V545.154C768.688 532.41 758.249 521.972 745.505 521.972H537.813C525.07 521.972 514.631 532.41 514.631 545.154V702.143C514.631 714.887 525.07 725.326 537.813 725.326Z" fill="#141414"/>
<path d="M497.142 767.623H650.878C663.621 767.623 674.06 757.184 674.06 744.441V630.698C674.06 617.954 663.621 607.516 650.878 607.516H497.142C484.399 607.516 473.96 617.954 473.96 630.698V744.441C473.96 757.32 484.263 767.623 497.142 767.623Z" fill="#141414"/>
<path d="M648.167 781.992H801.902C814.646 781.992 825.084 771.553 825.084 758.81V645.067C825.084 632.324 814.646 621.885 801.902 621.885H648.167C635.423 621.885 624.984 632.324 624.984 645.067V758.81C624.984 771.689 635.287 781.992 648.167 781.992Z" fill="#141414"/>
<path d="M564.25 480.758H693.718L703.615 490.654V734.272H607.903V695.228H564.25C560.454 691.432 558.285 689.263 554.353 685.332V490.654L564.25 480.758Z" fill="#FCAA73"/>
<path d="M693.718 480.758L703.615 490.654L704.293 602.228L703.479 602.77L604.785 503.534L554.353 564.268V490.654L564.25 480.758H693.718Z" fill="#141414"/>
<path d="M715.408 641.679H688.294V599.246H725.034V632.189C725.034 637.477 720.695 641.679 715.408 641.679Z" fill="#FCAA73"/>
<path d="M681.381 693.467H703.614V641.68H681.381V693.467Z" fill="url(#paint0_linear_18735_2677)"/>
<path d="M641.659 695.093H607.902V708.65H641.659V695.093Z" fill="url(#paint1_linear_18735_2677)"/>
<path fill-rule="evenodd" clip-rule="evenodd" d="M593.156 587.056C594.047 587.447 594.454 588.486 594.064 589.378L573.318 636.798H594.618C595.591 636.798 596.381 637.587 596.381 638.561C596.381 639.535 595.591 640.324 594.618 640.324H570.622C570.027 640.324 569.473 640.024 569.147 639.526C568.821 639.028 568.769 638.399 569.007 637.854L590.834 587.965C591.224 587.073 592.264 586.666 593.156 587.056Z" fill="#F06305"/>
<path d="M893.276 858.45C886.769 821.711 860.604 791.614 825.221 780.091L703.75 740.098V708.917H608.174V740.098L592.719 745.25L486.704 780.091C451.321 791.75 425.156 821.846 418.649 858.45L378.927 1080.38H608.31H704.022H932.998L893.276 858.45Z" fill="#F06305"/>
<path d="M789.022 1080.38H932.861L914.83 977.89H771.262L789.022 1080.38Z" fill="#FCAA73"/>
<path d="M499.176 917.693V1079.97L642.066 1080.51L499.176 917.693Z" fill="url(#paint2_linear_18735_2677)"/>
<path d="M756.351 898.036L789.972 1080.38H629.322L756.351 898.036Z" fill="url(#paint3_linear_18735_2677)"/>
<path d="M551.64 1048.66H228.579C221.936 1048.66 216.92 1054.76 218.14 1061.27L220.174 1071.7C221.123 1076.72 225.461 1080.25 230.612 1080.25H553.674C560.317 1080.25 565.333 1074.15 564.113 1067.64L562.079 1057.2C561.13 1052.18 556.792 1048.66 551.64 1048.66Z" fill="#072F73"/>
<path d="M20.6155 842.729H376.62C381.636 842.729 385.975 846.253 387.059 851.269L429.086 1067.64C430.306 1074.15 425.29 1080.25 418.647 1080.25H62.642C57.6259 1080.25 53.2878 1076.72 52.2032 1071.7L10.1768 855.336C8.95665 848.829 13.9726 842.729 20.6155 842.729Z" fill="#0C4EC0"/>
<path d="M882.565 1080.38L785.633 1014.09L689.378 948.334L621.323 1047.84L668.772 1080.38H882.565Z" fill="#FCAA73"/>
<path d="M772.755 986.431L776.687 1007.99L882.566 1080.38H932.862L927.033 1046.62L772.755 986.431Z" fill="url(#paint4_linear_18735_2677)"/>
<path d="M689.38 948.336L539.033 931.525L470.435 953.081L429.222 983.72L441.017 995.243L467.182 983.991L438.306 1011.92L453.76 1022.36L518.02 981.415L477.621 1027.37L489.822 1036.32L538.627 1004.19L508.802 1037L519.376 1045.67L567.367 1014.63L621.73 1047.84L689.38 948.336Z" fill="#FCAA73"/>
<path d="M61.2864 519.527H377.298C384.755 519.527 390.855 525.628 390.855 533.084V556.267H414.037C425.154 556.267 430.848 569.824 422.849 577.687L390.855 609.681V729.66C390.855 737.116 384.755 743.217 377.298 743.217H61.2864C53.8301 743.217 47.7295 737.116 47.7295 729.66V533.22C47.7295 525.628 53.8301 519.527 61.2864 519.527Z" fill="url(#paint5_linear_18735_2677)"/>
</g>
<defs>
<linearGradient id="paint0_linear_18735_2677" x1="671.673" y1="672.677" x2="731.279" y2="658.124" gradientUnits="userSpaceOnUse">
<stop stop-color="#F8BC9A" stop-opacity="0"/>
<stop offset="0.1066" stop-color="#F7B48D" stop-opacity="0.1375"/>
<stop offset="0.3031" stop-color="#F6A06C" stop-opacity="0.3906"/>
<stop offset="0.5652" stop-color="#F38035" stop-opacity="0.7285"/>
<stop offset="0.7758" stop-color="#F06305"/>
</linearGradient>
<linearGradient id="paint1_linear_18735_2677" x1="639.051" y1="722.73" x2="609.858" y2="680.075" gradientUnits="userSpaceOnUse">
<stop stop-color="#F8BC9A" stop-opacity="0"/>
<stop offset="0.1621" stop-color="#F8BA96" stop-opacity="0.1621"/>
<stop offset="0.3263" stop-color="#F7B28A" stop-opacity="0.3263"/>
<stop offset="0.4917" stop-color="#F6A675" stop-opacity="0.4917"/>
<stop offset="0.6578" stop-color="#F59559" stop-opacity="0.6578"/>
<stop offset="0.8246" stop-color="#F37F34" stop-opacity="0.8246"/>
<stop offset="0.9897" stop-color="#F06508" stop-opacity="0.9897"/>
<stop offset="1" stop-color="#F06305"/>
</linearGradient>
<linearGradient id="paint2_linear_18735_2677" x1="583.882" y1="987.577" x2="476.232" y2="1081.51" gradientUnits="userSpaceOnUse">
<stop offset="0.1453" stop-color="#F06305"/>
<stop offset="0.3114" stop-color="#E15D05"/>
<stop offset="0.6314" stop-color="#B94C04"/>
<stop offset="0.9417" stop-color="#8C3A03"/>
</linearGradient>
<linearGradient id="paint3_linear_18735_2677" x1="666.138" y1="965.851" x2="811.823" y2="1092.98" gradientUnits="userSpaceOnUse">
<stop offset="0.1453" stop-color="#F06305"/>
<stop offset="0.3114" stop-color="#E15D05"/>
<stop offset="0.6314" stop-color="#B94C04"/>
<stop offset="0.9417" stop-color="#8C3A03"/>
</linearGradient>
<linearGradient id="paint4_linear_18735_2677" x1="878.215" y1="975.967" x2="813.426" y2="1122.45" gradientUnits="userSpaceOnUse">
<stop offset="0.2814" stop-color="#F8BC9A" stop-opacity="0"/>
<stop offset="0.297" stop-color="#F8B995" stop-opacity="0.030735"/>
<stop offset="0.5359" stop-color="#F48B48" stop-opacity="0.4999"/>
<stop offset="0.7062" stop-color="#F16E18" stop-opacity="0.8344"/>
<stop offset="0.7905" stop-color="#F06305"/>
</linearGradient>
<linearGradient id="paint5_linear_18735_2677" x1="31.526" y1="511.657" x2="408.592" y2="751.901" gradientUnits="userSpaceOnUse">
<stop stop-color="#C5D9FB"/>
<stop offset="0.0703897" stop-color="#CBDDFA"/>
<stop offset="0.3904" stop-color="#E2EAF7"/>
<stop offset="0.6914" stop-color="#F0F2F6"/>
<stop offset="0.9518" stop-color="#F5F5F5"/>
</linearGradient>
<clipPath id="clip0_18735_2677">
<rect width="1080" height="1080" fill="white" transform="translate(0 0.513672)"/>
</clipPath>
</defs>
</svg>
